svg/UnitedNations-Flags/flag-tv.svg

<?xml version="1.0" encoding="UTF-8" standalone="no"?>
<!-- Created with Inkscape (http://www.inkscape.org/) --><svg height="256" id="svg1" inkscape:output_extension="org.inkscape.output.svg.inkscape" inkscape:version="0.46" sodipodi:docbase="C:\Documents and Settings\Zoran\Desktop" sodipodi:docname="Flag_of_Tuvalu.svg" sodipodi:version="0.32" version="1.0" width="256" x="0.00000000" xmlns="http://www.w3.org/2000/svg" xmlns:cc="http://creativecommons.org/ns#" xmlns:dc="http://purl.org/dc/elements/1.1/" xmlns:inkscape="http://www.inkscape.org/namespaces/inkscape" xmlns:rdf="http://www.w3.org/1999/02/22-rdf-syntax-ns#" xmlns:sodipodi="http://sodipodi.sourceforge.net/DTD/sodipodi-0.dtd" xmlns:svg="http://www.w3.org/2000/svg" xmlns:xlink="http://www.w3.org/1999/xlink" y="0.00000000">
  <metadata>
    <rdf:RDF xmlns:cc="http://web.resource.org/cc/" xmlns:dc="http://purl.org/dc/elements/1.1/" xmlns:rdf="http://www.w3.org/1999/02/22-rdf-syntax-ns#">
      <cc:Work rdf:about="">
        <dc:title></dc:title>
        <dc:description></dc:description>
        <dc:subject>
          <rdf:Bag>
            <rdf:li>unsorted</rdf:li>
          </rdf:Bag>
        </dc:subject>
        <dc:publisher>
          <cc:Agent rdf:about="http://www.openclipart.org/">
            <dc:title>Open Clip Art Library, Source: Wikimedia Commons, Source: Wikimedia Commons, Source: Wikimedia Commons, Source: Wikimedia Commons</dc:title>
          </cc:Agent>
        </dc:publisher>
        <dc:creator>
          <cc:Agent>
            <dc:title></dc:title>
          </cc:Agent>
        </dc:creator>
        <dc:rights>
          <cc:Agent>
            <dc:title></dc:title>
          </cc:Agent>
        </dc:rights>
        <dc:date></dc:date>
        <dc:format>image/svg+xml</dc:format>
        <dc:type rdf:resource="http://purl.org/dc/dcmitype/StillImage"/>
        <cc:license rdf:resource="http://en.wikipedia.org/wiki/Public_domain"/>
        <dc:language>en</dc:language>
      </cc:Work>
    </rdf:RDF>
  </metadata>
  <sodipodi:namedview bordercolor="#666666" borderopacity="1.0" id="base" inkscape:current-layer="svg1" inkscape:cx="500.00014" inkscape:cy="249.99995" inkscape:pageopacity="0.0" inkscape:pageshadow="2" inkscape:window-height="968" inkscape:window-width="1278" inkscape:window-x="0" inkscape:window-y="11" inkscape:zoom="1.1889997" pagecolor="#ffffff" showgrid="false"/>
  <defs id="defs3">
    <inkscape:perspective id="perspective4410" inkscape:persp3d-origin="500 : 166.66667 : 1" inkscape:vp_x="0 : 250 : 1" inkscape:vp_y="0 : 1000 : 0" inkscape:vp_z="1000 : 250 : 1" sodipodi:type="inkscape:persp3d"/>
  </defs>
  <g id="g2309" transform="matrix(0.4266666,0,0,0.4266666,0,64.000004)">
    <g id="g2296">
      <g id="g1333"/>
      <path d="M 300.00002,-1e-05 L 600.00005,-1e-05 L 600.00005,300.00001 L 0,300.00001 L 0,150 L 300.00002,150 L 300.00002,-1e-05 z" id="path4861" style="fill:#75aadb;fill-opacity:1;fill-rule:evenodd;stroke:none;stroke-width:1px;stroke-linecap:butt;stroke-linejoin:miter;stroke-opacity:1"/>
    </g>
    <g id="g2095" transform="matrix(0.604757,0,0,0.604757,-7.315296e-3,3.329625e-3)">
      <polygon id="polygon136" points="591.041,433.161 533.774,391.476 476.501,433.151 498.449,365.806 441.115,324.214 511.946,324.278 533.785,256.897 555.613,324.281 626.445,324.23 569.104,365.812 591.041,433.161 " style="font-size:12px;fill:#fcd116;fill-opacity:1;fill-rule:evenodd;stroke-width:1pt" transform="matrix(0.498761,0,0,0.469385,657.6627,-98.2599)"/>
      <polygon id="polygon3314" points="591.041,433.161 533.774,391.476 476.501,433.151 498.449,365.806 441.115,324.214 511.946,324.278 533.785,256.897 555.613,324.281 626.445,324.23 569.104,365.812 591.041,433.161 " style="font-size:12px;fill:#fcd116;fill-opacity:1;fill-rule:evenodd;stroke-width:1pt" transform="matrix(0.498761,0,0,0.469385,569.0006,153.8731)"/>
      <polygon id="polygon3315" points="591.041,433.161 533.774,391.476 476.501,433.151 498.449,365.806 441.115,324.214 511.946,324.278 533.785,256.897 555.613,324.281 626.445,324.23 569.104,365.812 591.041,433.161 " style="font-size:12px;fill:#fcd116;fill-opacity:1;fill-rule:evenodd;stroke-width:1pt" transform="matrix(0.498761,0,0,0.469385,657.6628,96.79682)"/>
      <polygon id="polygon3317" points="591.041,433.161 533.774,391.476 476.501,433.151 498.449,365.806 441.115,324.214 511.946,324.278 533.785,256.897 555.613,324.281 626.445,324.23 569.104,365.812 591.041,433.161 " style="font-size:12px;fill:#fcd116;fill-opacity:1;fill-rule:evenodd;stroke-width:1pt" transform="matrix(0.498761,0,0,0.469385,276.4154,279.6626)"/>
      <polygon id="polygon3319" points="591.041,433.161 533.774,391.476 476.501,433.151 498.449,365.806 441.115,324.214 511.946,324.278 533.785,256.897 555.613,324.281 626.445,324.23 569.104,365.812 591.041,433.161 " style="font-size:12px;fill:#fcd116;fill-opacity:1;fill-rule:evenodd;stroke-width:1pt" transform="matrix(-0.498761,0,0,-0.469385,910.834,486.0882)"/>
      <polygon id="polygon3320" points="591.041,433.161 533.774,391.476 476.501,433.151 498.449,365.806 441.115,324.214 511.946,324.278 533.785,256.897 555.613,324.281 626.445,324.23 569.104,365.812 591.041,433.161 " style="font-size:12px;fill:#fcd116;fill-opacity:1;fill-rule:evenodd;stroke-width:1pt" transform="matrix(-0.498761,0,0,-0.469385,1015.012,342.0122)"/>
      <polygon id="polygon3321" points="591.041,433.161 533.774,391.476 476.501,433.151 498.449,365.806 441.115,324.214 511.946,324.278 533.785,256.897 555.613,324.281 626.445,324.23 569.104,365.812 591.041,433.161 " style="font-size:12px;fill:#fcd116;fill-opacity:1;fill-rule:evenodd;stroke-width:1pt" transform="matrix(-0.498761,0,0,-0.469385,1102.566,312.0887)"/>
      <polygon id="polygon3322" points="591.041,433.161 533.774,391.476 476.501,433.151 498.449,365.806 441.115,324.214 511.946,324.278 533.785,256.897 555.613,324.281 626.445,324.23 569.104,365.812 591.041,433.161 " style="font-size:12px;fill:#fcd116;fill-opacity:1;fill-rule:evenodd;stroke-width:1pt" transform="matrix(-0.498761,0,0,-0.469385,1015.012,561.451)"/>
      <polygon id="polygon3323" points="591.041,433.161 533.774,391.476 476.501,433.151 498.449,365.806 441.115,324.214 511.946,324.278 533.785,256.897 555.613,324.281 626.445,324.23 569.104,365.812 591.041,433.161 " style="font-size:12px;fill:#fcd116;fill-opacity:1;fill-rule:evenodd;stroke-width:1pt" transform="matrix(-0.498761,0,0,-0.469385,910.834,586.9413)"/>
    </g>
  </g>
  <g id="g3845" transform="matrix(0.2133332,0,0,0.2133332,0,64.000024)">
    <g id="g3847">
      <g id="g3849">
        <rect height="300" id="rect1764" style="fill:#00267f;fill-opacity:1;fill-rule:evenodd;stroke:none;stroke-width:1pt;stroke-linecap:butt;stroke-linejoin:miter;stroke-opacity:1" width="600" x="0" y="-7.8124995e-06"/>
        <path d="M 1.110223e-14,299.99999 L 67.08,299.99999 L 600,33.539988 L 600,-1.2e-05 L 532.92,-1.2e-05 L 1.110223e-14,266.45999 L 1.110223e-14,299.99999 z" id="path4640" style="fill:#ffffff;fill-opacity:1;fill-rule:evenodd;stroke:none;stroke-width:1pt;stroke-linecap:butt;stroke-linejoin:miter;stroke-opacity:1"/>
        <path d="M 600,299.99999 L 532.92,299.99999 L 1.110223e-14,33.539988 L 1.110223e-14,-1.2e-05 L 67.08,-1.2e-05 L 600,266.45999 L 600,299.99999 z" id="path6505" style="fill:#ffffff;fill-opacity:1;fill-rule:evenodd;stroke:none;stroke-width:1pt;stroke-linecap:butt;stroke-linejoin:miter;stroke-opacity:1"/>
        <path d="M 250,0 L 250,100 L 0,100 L 0,200 L 250,200 L 250,300 L 350,300 L 350,200 L 600,200 L 600,100 L 350,100 L 350,0 L 250,0 z" id="rect1530" style="fill:#ffffff;fill-opacity:1;fill-rule:evenodd;stroke:none;stroke-width:1pt;stroke-linecap:butt;stroke-linejoin:miter;stroke-opacity:1"/>
        <path d="M 270,0 L 270,120 L 0,120 L 0,180 L 270,180 L 270,300 L 330,300 L 330,180 L 600,180 L 600,120 L 330,120 L 330,0 L 270,0 z" id="rect3395" style="fill:#d21034;fill-opacity:1;fill-rule:evenodd;stroke:none;stroke-width:1pt;stroke-linecap:butt;stroke-linejoin:miter;stroke-opacity:1"/>
        <path d="M 355.28,99.999988 L 400,99.999988 L 600,-1.2e-05 L 555.28,-1.2e-05 L 355.28,99.999988 z" id="path8371" style="fill:#d21034;fill-opacity:1;fill-rule:evenodd;stroke:none;stroke-width:1pt;stroke-linecap:butt;stroke-linejoin:miter;stroke-opacity:1"/>
        <path d="M 1.110223e-14,-1.2e-05 L 1.110223e-14,22.359988 L 155.28,99.999988 L 200,99.999988 L 1.110223e-14,-1.2e-05 z" id="path9616" style="fill:#d21034;fill-opacity:1;fill-rule:evenodd;stroke:none;stroke-width:1pt;stroke-linecap:butt;stroke-linejoin:miter;stroke-opacity:1"/>
        <use height="300" id="use3668" transform="matrix(-1,0,0,-1,600,300)" width="600" x="0" xlink:href="#path9616" y="0"/>
        <use height="300" id="use3711" transform="translate(-355.28,200)" width="600" x="0" xlink:href="#path8371" y="0"/>
      </g>
    </g>
    <g id="g3862" transform="matrix(0.604757,0,0,0.604757,-7.315296e-3,3.329625e-3)"/>
  </g>
</svg>

<svg xmlns="http://www.w3.org/2000/svg" xmlns:xlink="http://www.w3.org/1999/xlink" viewBox="0 0 256 256"><defs><path id="0" d="m591.04 433.16l-57.27-41.68-57.27 41.67 21.95-67.34-57.33-41.6 70.83.07 21.83-67.38 21.83 67.38 70.84-.05-57.35 41.58 21.94 67.35" stroke-width="1.25" fill-rule="evenodd" fill="#fcd116"/></defs><g transform="matrix(.42667 0 0 .42667 0 64)"><path d="m300 0h300v300h-600v-150h300v-150" fill="#75aadb" fill-rule="evenodd"/><g transform="matrix(.60476 0 0 .60476-.007.003)"><use transform="matrix(.49876 0 0 .46938 657.66-98.26)" xlink:href="#0"/><use transform="matrix(.49876 0 0 .46938 569 153.87)" xlink:href="#0"/><use transform="matrix(.49876 0 0 .46938 657.66 96.8)" xlink:href="#0"/><use transform="matrix(.49876 0 0 .46938 276.42 279.66)" xlink:href="#0"/><use transform="matrix(-.49876 0 0-.46938 910.83 486.09)" xlink:href="#0"/><use transform="matrix(-.49876 0 0-.46938 1015.01 342.01)" xlink:href="#0"/><use transform="matrix(-.49876 0 0-.46938 1102.57 312.09)" xlink:href="#0"/><use transform="matrix(-.49876 0 0-.46938 1015.01 561.45)" xlink:href="#0"/><use transform="matrix(-.49876 0 0-.46938 910.83 586.94)" xlink:href="#0"/></g></g><g transform="matrix(.21333 0 0 .21333 0 64)"><g fill-rule="evenodd"><path fill="#00267f" d="m0 0h600v300h-600z"/><g fill="#fff"><path d="m0 300h67.08l532.92-266.46v-33.54h-67.08l-532.92 266.46v33.54"/><path d="m600 300h-67.08l-532.92-266.46v-33.54h67.08l532.92 266.46v33.54"/><path d="m250 0v100h-250v100h250v100h100v-100h250v-100h-250v-100h-100"/></g><path d="m270 0v120h-270v60h270v120h60v-120h270v-60h-270v-120h-60" fill="#d21034"/></g><path d="m355.28 100h44.72l200-100h-44.72l-200 100" id="1" fill="#d21034" fill-rule="evenodd"/><path d="m0 0v22.36l155.28 77.64h44.72l-200-100" id="2" fill="#d21034" fill-rule="evenodd"/><use height="300" transform="matrix(-1 0 0-1 600 300)" width="600" xlink:href="#2"/><use height="300" transform="translate(-355.28 200)" width="600" xlink:href="#1"/></g></svg>
